icons/midnadark/actions/24/resource-calendar-child.svg

<?xml version="1.0" encoding="UTF-8" standalone="no"?>
<!-- Created with Inkscape (http://www.inkscape.org/) -->

<svg
   xmlns:osb="http://www.openswatchbook.org/uri/2009/osb"
   xmlns:dc="http://purl.org/dc/elements/1.1/"
   xmlns:cc="http://creativecommons.org/ns#"
   xmlns:rdf="http://www.w3.org/1999/02/22-rdf-syntax-ns#"
   xmlns:svg="http://www.w3.org/2000/svg"
   xmlns="http://www.w3.org/2000/svg"
   xmlns:xlink="http://www.w3.org/1999/xlink"
   xmlns:sodipodi="http://sodipodi.sourceforge.net/DTD/sodipodi-0.dtd"
   xmlns:inkscape="http://www.inkscape.org/namespaces/inkscape"
   width="22"
   height="22"
   id="svg3869"
   version="1.1"
   inkscape:version="0.91 r13725"
   sodipodi:docname="resource-calendar-child.svg">
  <defs
     id="defs3871">
    <linearGradient
       id="linearGradient4290-48">
      <stop
         id="stop4292-0"
         offset="0"
         style="stop-color:#a5a5a5;stop-opacity:1;" />
      <stop
         id="stop4294-0"
         offset="1"
         style="stop-color:#f5f2f5;stop-opacity:1;" />
    </linearGradient>
    <inkscape:perspective
       id="perspective4146-9"
       inkscape:persp3d-origin="12 : 8 : 1"
       inkscape:vp_z="24 : 12 : 1"
       inkscape:vp_y="0 : 1000 : 0"
       inkscape:vp_x="0 : 12 : 1"
       sodipodi:type="inkscape:persp3d" />
    <inkscape:perspective
       id="perspective4146"
       inkscape:persp3d-origin="12 : 8 : 1"
       inkscape:vp_z="24 : 12 : 1"
       inkscape:vp_y="0 : 1000 : 0"
       inkscape:vp_x="0 : 12 : 1"
       sodipodi:type="inkscape:persp3d" />
    <inkscape:perspective
       sodipodi:type="inkscape:persp3d"
       inkscape:vp_x="0 : 12 : 1"
       inkscape:vp_y="0 : 1000 : 0"
       inkscape:vp_z="24 : 12 : 1"
       inkscape:persp3d-origin="12 : 8 : 1"
       id="perspective4146-9-1" />
    <inkscape:perspective
       sodipodi:type="inkscape:persp3d"
       inkscape:vp_x="0 : 12 : 1"
       inkscape:vp_y="0 : 1000 : 0"
       inkscape:vp_z="24 : 12 : 1"
       inkscape:persp3d-origin="12 : 8 : 1"
       id="perspective4146-96" />
    <inkscape:perspective
       sodipodi:type="inkscape:persp3d"
       inkscape:vp_x="0 : 12 : 1"
       inkscape:vp_y="0 : 1000 : 0"
       inkscape:vp_z="24 : 12 : 1"
       inkscape:persp3d-origin="12 : 8 : 1"
       id="perspective4146-9-4" />
    <inkscape:perspective
       sodipodi:type="inkscape:persp3d"
       inkscape:vp_x="0 : 12 : 1"
       inkscape:vp_y="0 : 1000 : 0"
       inkscape:vp_z="24 : 12 : 1"
       inkscape:persp3d-origin="12 : 8 : 1"
       id="perspective4146-7" />
    <inkscape:perspective
       id="perspective4146-9-1-2"
       inkscape:persp3d-origin="12 : 8 : 1"
       inkscape:vp_z="24 : 12 : 1"
       inkscape:vp_y="0 : 1000 : 0"
       inkscape:vp_x="0 : 12 : 1"
       sodipodi:type="inkscape:persp3d" />
    <inkscape:perspective
       id="perspective4146-96-9"
       inkscape:persp3d-origin="12 : 8 : 1"
       inkscape:vp_z="24 : 12 : 1"
       inkscape:vp_y="0 : 1000 : 0"
       inkscape:vp_x="0 : 12 : 1"
       sodipodi:type="inkscape:persp3d" />
    <linearGradient
       osb:paint="gradient"
       id="linearGradient4207">
      <stop
         id="stop3371"
         offset="0"
         style="stop-color:#3498db;stop-opacity:1;" />
      <stop
         id="stop3373"
         offset="1"
         style="stop-color:#3498db;stop-opacity:0;" />
    </linearGradient>
    <linearGradient
       id="linearGradient3257">
      <stop
         offset="0"
         style="stop-color:#a50000;stop-opacity:1"
         id="stop3259" />
      <stop
         offset="1"
         style="stop-color:#e73800;stop-opacity:1"
         id="stop3261" />
    </linearGradient>
    <clipPath
       clipPathUnits="userSpaceOnUse"
       id="clipPath4210">
      <rect
         y="1024.3622"
         x="-7"
         height="34"
         width="34"
         id="rect4212"
         style="opacity:1;fill:#0000ff;fill-opacity:0.51376145;stroke:none;stroke-opacity:1" />
    </clipPath>
    <clipPath
       clipPathUnits="userSpaceOnUse"
       id="clipPath4160">
      <rect
         style="opacity:1;fill:#aade87;fill-opacity:0.47247709;stroke:none;stroke-opacity:1"
         id="rect4162"
         width="32"
         height="32.000015"
         x="-6"
         y="1028.3619" />
    </clipPath>
    <clipPath
       id="clipPath4210-4"
       clipPathUnits="userSpaceOnUse">
      <rect
         style="opacity:1;fill:#0000ff;fill-opacity:0.51376145;stroke:none;stroke-opacity:1"
         id="rect4212-2"
         width="34"
         height="34"
         x="-7"
         y="1024.3622" />
    </clipPath>
    <clipPath
       id="clipPath4160-2"
       clipPathUnits="userSpaceOnUse">
      <rect
         y="1028.3619"
         x="-6"
         height="32.000015"
         width="32"
         id="rect4162-7"
         style="opacity:1;fill:#aade87;fill-opacity:0.47247709;stroke:none;stroke-opacity:1" />
    </clipPath>
    <clipPath
       id="clipPath4210-5"
       clipPathUnits="userSpaceOnUse">
      <rect
         style="opacity:1;fill:#0000ff;fill-opacity:0.51376145;stroke:none;stroke-opacity:1"
         id="rect4212-7"
         width="34"
         height="34"
         x="-7"
         y="1024.3622" />
    </clipPath>
    <clipPath
       id="clipPath4160-0"
       clipPathUnits="userSpaceOnUse">
      <rect
         y="1028.3619"
         x="-6"
         height="32.000015"
         width="32"
         id="rect4162-9"
         style="opacity:1;fill:#aade87;fill-opacity:0.47247709;stroke:none;stroke-opacity:1" />
    </clipPath>
    <clipPath
       clipPathUnits="userSpaceOnUse"
       id="clipPath4160-5">
      <rect
         style="opacity:1;fill:#f2f2f2;fill-opacity:1;stroke:none;stroke-opacity:1"
         id="rect4162-8"
         width="1"
         height="1"
         x="7"
         y="1023.3622" />
    </clipPath>
    <linearGradient
       y2="1045.3622"
       x2="15"
       y1="1045.3622"
       x1="3"
       gradientUnits="userSpaceOnUse"
       id="linearGradient4123"
       xlink:href="#linearGradient4021-3"
       inkscape:collect="always"
       gradientTransform="translate(0,-1.9999941)" />
    <linearGradient
       id="linearGradient4021-3">
      <stop
         style="stop-color:#b3b3b3;stop-opacity:1;"
         offset="0"
         id="stop4023-0" />
      <stop
         style="stop-color:#4d4d4d;stop-opacity:1;"
         offset="1"
         id="stop4025-2" />
    </linearGradient>
    <clipPath
       clipPathUnits="userSpaceOnUse"
       id="clipPath4160-8">
      <rect
         style="opacity:1;fill:#f2f2f2;fill-opacity:1;stroke:none;stroke-opacity:1"
         id="rect4162-9-9"
         width="1"
         height="1"
         x="7"
         y="1023.3622" />
    </clipPath>
    <inkscape:perspective
       sodipodi:type="inkscape:persp3d"
       inkscape:vp_x="0 : 12 : 1"
       inkscape:vp_y="0 : 1000 : 0"
       inkscape:vp_z="24 : 12 : 1"
       inkscape:persp3d-origin="12 : 8 : 1"
       id="perspective4146-9-0" />
    <inkscape:perspective
       sodipodi:type="inkscape:persp3d"
       inkscape:vp_x="0 : 12 : 1"
       inkscape:vp_y="0 : 1000 : 0"
       inkscape:vp_z="24 : 12 : 1"
       inkscape:persp3d-origin="12 : 8 : 1"
       id="perspective4146-4" />
    <inkscape:perspective
       id="perspective4146-9-1-0"
       inkscape:persp3d-origin="12 : 8 : 1"
       inkscape:vp_z="24 : 12 : 1"
       inkscape:vp_y="0 : 1000 : 0"
       inkscape:vp_x="0 : 12 : 1"
       sodipodi:type="inkscape:persp3d" />
    <inkscape:perspective
       id="perspective4146-96-1"
       inkscape:persp3d-origin="12 : 8 : 1"
       inkscape:vp_z="24 : 12 : 1"
       inkscape:vp_y="0 : 1000 : 0"
       inkscape:vp_x="0 : 12 : 1"
       sodipodi:type="inkscape:persp3d" />
    <inkscape:perspective
       id="perspective4146-9-4-7"
       inkscape:persp3d-origin="12 : 8 : 1"
       inkscape:vp_z="24 : 12 : 1"
       inkscape:vp_y="0 : 1000 : 0"
       inkscape:vp_x="0 : 12 : 1"
       sodipodi:type="inkscape:persp3d" />
    <inkscape:perspective
       id="perspective4146-7-7"
       inkscape:persp3d-origin="12 : 8 : 1"
       inkscape:vp_z="24 : 12 : 1"
       inkscape:vp_y="0 : 1000 : 0"
       inkscape:vp_x="0 : 12 : 1"
       sodipodi:type="inkscape:persp3d" />
    <inkscape:perspective
       sodipodi:type="inkscape:persp3d"
       inkscape:vp_x="0 : 12 : 1"
       inkscape:vp_y="0 : 1000 : 0"
       inkscape:vp_z="24 : 12 : 1"
       inkscape:persp3d-origin="12 : 8 : 1"
       id="perspective4146-9-1-2-7" />
    <inkscape:perspective
       sodipodi:type="inkscape:persp3d"
       inkscape:vp_x="0 : 12 : 1"
       inkscape:vp_y="0 : 1000 : 0"
       inkscape:vp_z="24 : 12 : 1"
       inkscape:persp3d-origin="12 : 8 : 1"
       id="perspective4146-96-9-1" />
    <clipPath
       id="clipPath4210-2"
       clipPathUnits="userSpaceOnUse">
      <rect
         style="opacity:1;fill:#0000ff;fill-opacity:0.51376145;stroke:none;stroke-opacity:1"
         id="rect4212-8"
         width="34"
         height="34"
         x="-7"
         y="1024.3622" />
    </clipPath>
    <clipPath
       id="clipPath4160-6"
       clipPathUnits="userSpaceOnUse">
      <rect
         y="1028.3619"
         x="-6"
         height="32.000015"
         width="32"
         id="rect4162-5"
         style="opacity:1;fill:#aade87;fill-opacity:0.47247709;stroke:none;stroke-opacity:1" />
    </clipPath>
    <clipPath
       clipPathUnits="userSpaceOnUse"
       id="clipPath4210-4-5">
      <rect
         y="1024.3622"
         x="-7"
         height="34"
         width="34"
         id="rect4212-2-0"
         style="opacity:1;fill:#0000ff;fill-opacity:0.51376145;stroke:none;stroke-opacity:1" />
    </clipPath>
    <clipPath
       clipPathUnits="userSpaceOnUse"
       id="clipPath4160-2-6">
      <rect
         style="opacity:1;fill:#aade87;fill-opacity:0.47247709;stroke:none;stroke-opacity:1"
         id="rect4162-7-2"
         width="32"
         height="32.000015"
         x="-6"
         y="1028.3619" />
    </clipPath>
    <clipPath
       clipPathUnits="userSpaceOnUse"
       id="clipPath4210-5-7">
      <rect
         y="1024.3622"
         x="-7"
         height="34"
         width="34"
         id="rect4212-7-7"
         style="opacity:1;fill:#0000ff;fill-opacity:0.51376145;stroke:none;stroke-opacity:1" />
    </clipPath>
    <clipPath
       clipPathUnits="userSpaceOnUse"
       id="clipPath4160-0-3">
      <rect
         style="opacity:1;fill:#aade87;fill-opacity:0.47247709;stroke:none;stroke-opacity:1"
         id="rect4162-9-6"
         width="32"
         height="32.000015"
         x="-6"
         y="1028.3619" />
    </clipPath>
    <clipPath
       id="clipPath4160-5-5"
       clipPathUnits="userSpaceOnUse">
      <rect
         y="1023.3622"
         x="7"
         height="1"
         width="1"
         id="rect4162-8-3"
         style="opacity:1;fill:#f2f2f2;fill-opacity:1;stroke:none;stroke-opacity:1" />
    </clipPath>
    <clipPath
       id="clipPath4160-8-1"
       clipPathUnits="userSpaceOnUse">
      <rect
         y="1023.3622"
         x="7"
         height="1"
         width="1"
         id="rect4162-9-9-7"
         style="opacity:1;fill:#f2f2f2;fill-opacity:1;stroke:none;stroke-opacity:1" />
    </clipPath>
    <inkscape:perspective
       sodipodi:type="inkscape:persp3d"
       inkscape:vp_x="0 : 12 : 1"
       inkscape:vp_y="0 : 1000 : 0"
       inkscape:vp_z="24 : 12 : 1"
       inkscape:persp3d-origin="12 : 8 : 1"
       id="perspective4146-9-3" />
    <inkscape:perspective
       sodipodi:type="inkscape:persp3d"
       inkscape:vp_x="0 : 12 : 1"
       inkscape:vp_y="0 : 1000 : 0"
       inkscape:vp_z="24 : 12 : 1"
       inkscape:persp3d-origin="12 : 8 : 1"
       id="perspective4146-91" />
    <inkscape:perspective
       id="perspective4146-9-1-27"
       inkscape:persp3d-origin="12 : 8 : 1"
       inkscape:vp_z="24 : 12 : 1"
       inkscape:vp_y="0 : 1000 : 0"
       inkscape:vp_x="0 : 12 : 1"
       sodipodi:type="inkscape:persp3d" />
    <inkscape:perspective
       id="perspective4146-96-6"
       inkscape:persp3d-origin="12 : 8 : 1"
       inkscape:vp_z="24 : 12 : 1"
       inkscape:vp_y="0 : 1000 : 0"
       inkscape:vp_x="0 : 12 : 1"
       sodipodi:type="inkscape:persp3d" />
    <inkscape:perspective
       id="perspective4146-9-4-8"
       inkscape:persp3d-origin="12 : 8 : 1"
       inkscape:vp_z="24 : 12 : 1"
       inkscape:vp_y="0 : 1000 : 0"
       inkscape:vp_x="0 : 12 : 1"
       sodipodi:type="inkscape:persp3d" />
    <inkscape:perspective
       id="perspective4146-7-4"
       inkscape:persp3d-origin="12 : 8 : 1"
       inkscape:vp_z="24 : 12 : 1"
       inkscape:vp_y="0 : 1000 : 0"
       inkscape:vp_x="0 : 12 : 1"
       sodipodi:type="inkscape:persp3d" />
    <inkscape:perspective
       sodipodi:type="inkscape:persp3d"
       inkscape:vp_x="0 : 12 : 1"
       inkscape:vp_y="0 : 1000 : 0"
       inkscape:vp_z="24 : 12 : 1"
       inkscape:persp3d-origin="12 : 8 : 1"
       id="perspective4146-9-1-2-9" />
    <inkscape:perspective
       sodipodi:type="inkscape:persp3d"
       inkscape:vp_x="0 : 12 : 1"
       inkscape:vp_y="0 : 1000 : 0"
       inkscape:vp_z="24 : 12 : 1"
       inkscape:persp3d-origin="12 : 8 : 1"
       id="perspective4146-96-9-9" />
    <clipPath
       id="clipPath4210-7"
       clipPathUnits="userSpaceOnUse">
      <rect
         style="opacity:1;fill:#0000ff;fill-opacity:0.51376145;stroke:none;stroke-opacity:1"
         id="rect4212-1"
         width="34"
         height="34"
         x="-7"
         y="1024.3622" />
    </clipPath>
    <clipPath
       id="clipPath4160-04"
       clipPathUnits="userSpaceOnUse">
      <rect
         y="1028.3619"
         x="-6"
         height="32.000015"
         width="32"
         id="rect4162-4"
         style="opacity:1;fill:#aade87;fill-opacity:0.47247709;stroke:none;stroke-opacity:1" />
    </clipPath>
    <clipPath
       clipPathUnits="userSpaceOnUse"
       id="clipPath4210-4-0">
      <rect
         y="1024.3622"
         x="-7"
         height="34"
         width="34"
         id="rect4212-2-08"
         style="opacity:1;fill:#0000ff;fill-opacity:0.51376145;stroke:none;stroke-opacity:1" />
    </clipPath>
    <clipPath
       clipPathUnits="userSpaceOnUse"
       id="clipPath4160-2-4">
      <rect
         style="opacity:1;fill:#aade87;fill-opacity:0.47247709;stroke:none;stroke-opacity:1"
         id="rect4162-7-4"
         width="32"
         height="32.000015"
         x="-6"
         y="1028.3619" />
    </clipPath>
    <clipPath
       clipPathUnits="userSpaceOnUse"
       id="clipPath4210-5-2">
      <rect
         y="1024.3622"
         x="-7"
         height="34"
         width="34"
         id="rect4212-7-9"
         style="opacity:1;fill:#0000ff;fill-opacity:0.51376145;stroke:none;stroke-opacity:1" />
    </clipPath>
    <clipPath
       clipPathUnits="userSpaceOnUse"
       id="clipPath4160-0-2">
      <rect
         style="opacity:1;fill:#aade87;fill-opacity:0.47247709;stroke:none;stroke-opacity:1"
         id="rect4162-9-4"
         width="32"
         height="32.000015"
         x="-6"
         y="1028.3619" />
    </clipPath>
  </defs>
  <sodipodi:namedview
     id="base"
     pagecolor="#ffffff"
     bordercolor="#666666"
     borderopacity="1.0"
     inkscape:pageopacity="0.0"
     inkscape:pageshadow="2"
     inkscape:zoom="7.9999995"
     inkscape:cx="15.903682"
     inkscape:cy="14.925096"
     inkscape:document-units="px"
     inkscape:current-layer="layer1-5-6"
     showgrid="true"
     fit-margin-top="0"
     fit-margin-left="0"
     fit-margin-right="0"
     fit-margin-bottom="0"
     inkscape:window-width="1366"
     inkscape:window-height="633"
     inkscape:window-x="0"
     inkscape:window-y="33"
     inkscape:window-maximized="1"
     inkscape:showpageshadow="false"
     inkscape:snap-bbox="true"
     inkscape:object-nodes="true">
    <inkscape:grid
       type="xygrid"
       id="grid4132" />
    <sodipodi:guide
       position="4,18"
       orientation="18,0"
       id="guide4138" />
    <sodipodi:guide
       position="-3,-1"
       orientation="0,18"
       id="guide4140" />
    <sodipodi:guide
       position="20,2.0000174"
       orientation="-18,0"
       id="guide4142" />
    <sodipodi:guide
       position="2,21"
       orientation="0,-18"
       id="guide4144" />
    <sodipodi:guide
       position="3,19.000017"
       orientation="16,0"
       id="guide4146" />
    <sodipodi:guide
       position="2,4"
       orientation="0,16"
       id="guide4148" />
    <sodipodi:guide
       position="21,20"
       orientation="-16,0"
       id="guide4150" />
    <sodipodi:guide
       position="2,20"
       orientation="0,-16"
       id="guide4152" />
  </sodipodi:namedview>
  <metadata
     id="metadata3874">
    <rdf:RDF>
      <cc:Work
         rdf:about="">
        <dc:format>image/svg+xml</dc:format>
        <dc:type
           rdf:resource="http://purl.org/dc/dcmitype/StillImage" />
        <dc:title />
      </cc:Work>
    </rdf:RDF>
  </metadata>
  <g
     inkscape:label="Capa 1"
     inkscape:groupmode="layer"
     id="layer1"
     transform="translate(-326,-534.3622)">
    <g
       id="layer1-72"
       inkscape:label="Capa 1"
       transform="translate(-21,2)">
      <g
         inkscape:label="Capa 1"
         id="layer1-5"
         transform="translate(-94.71429,7.57146)" />
    </g>
    <g
       id="layer1-2"
       inkscape:label="Capa 1"
       transform="translate(-25.299998,0.29999811)">
      <g
         transform="translate(-21,2)"
         inkscape:label="Capa 1"
         id="layer1-72-3">
        <g
           transform="translate(-94.71429,7.57146)"
           id="layer1-5-6"
           inkscape:label="Capa 1">
          <path
             style="opacity:1;fill:#ffffff;fill-opacity:1;fill-rule:evenodd;stroke:none;stroke-width:1;stroke-linecap:round;stroke-linejoin:miter;stroke-miterlimit:4;stroke-dasharray:none;stroke-dashoffset:0;stroke-opacity:1"
             d="M 4 3 C 3.4459836 3 3 3.4459836 3 4 L 3 18 C 3 18.554016 3.4459836 19 4 19 L 18 19 C 18.554016 19 19 18.554016 19 18 L 19 4 C 19 3.4459836 18.554016 3 18 3 L 4 3 z M 7.1191406 6 A 1.2697625 1.2697625 0 0 1 8.3886719 7.2695312 A 1.2697625 1.2697625 0 0 1 7.1191406 8.5410156 A 1.2697625 1.2697625 0 0 1 5.8496094 7.2695312 A 1.2697625 1.2697625 0 0 1 7.1191406 6 z M 10.992188 6 A 1.2697625 1.2697625 0 0 1 12.261719 7.2695312 A 1.2697625 1.2697625 0 0 1 10.992188 8.5410156 A 1.2697625 1.2697625 0 0 1 9.7226562 7.2695312 A 1.2697625 1.2697625 0 0 1 10.992188 6 z M 14.880859 6 A 1.2697625 1.2697625 0 0 1 16.150391 7.2695312 A 1.2697625 1.2697625 0 0 1 14.880859 8.5390625 A 1.2697625 1.2697625 0 0 1 13.611328 7.2695312 A 1.2697625 1.2697625 0 0 1 14.880859 6 z M 14.880859 9.6972656 A 1.2697625 1.2697625 0 0 1 16.150391 10.96875 A 1.2697625 1.2697625 0 0 1 14.880859 12.238281 A 1.2697625 1.2697625 0 0 1 13.611328 10.96875 A 1.2697625 1.2697625 0 0 1 14.880859 9.6972656 z M 7.1191406 9.6992188 A 1.2697625 1.2697625 0 0 1 8.3886719 10.96875 A 1.2697625 1.2697625 0 0 1 7.1191406 12.238281 A 1.2697625 1.2697625 0 0 1 5.8496094 10.96875 A 1.2697625 1.2697625 0 0 1 7.1191406 9.6992188 z M 10.992188 9.6992188 A 1.2697625 1.2697625 0 0 1 12.261719 10.96875 A 1.2697625 1.2697625 0 0 1 10.992188 12.238281 A 1.2697625 1.2697625 0 0 1 9.7226562 10.96875 A 1.2697625 1.2697625 0 0 1 10.992188 9.6992188 z M 7.1191406 13.460938 A 1.2697625 1.2697625 0 0 1 8.3886719 14.730469 A 1.2697625 1.2697625 0 0 1 7.1191406 16 A 1.2697625 1.2697625 0 0 1 5.8496094 14.730469 A 1.2697625 1.2697625 0 0 1 7.1191406 13.460938 z "
             transform="translate(467.01429,524.49074)"
             id="rect4227" />
          <g
             transform="matrix(0.62500001,0,0,0.62500001,267.38928,194.63936)"
             id="layer1-4"
             inkscape:label="Capa 1"
             style="fill:#ffffff;fill-opacity:1">
            <g
               transform="matrix(1.0667544,0,0,1.0667544,-23.562987,-35.338572)"
               id="g4204"
               style="fill:#ffffff;fill-opacity:1">
              <g
                 transform="matrix(1.9044871,0,0,1.9044871,-265.78146,-509.74653)"
                 id="g4361-2-6"
                 style="fill:#ffffff;fill-opacity:1">
                <g
                   id="g4428"
                   style="fill:#ffffff;fill-opacity:1">
                  <g
                     id="g4361"
                     transform="translate(-3.1521836e-8,-5.8750002)"
                     style="fill:#ffffff;fill-opacity:1" />
                  <g
                     id="g4361-2"
                     transform="translate(-3.1521836e-8,-2.9624802)"
                     style="fill:#ffffff;fill-opacity:1" />
                </g>
              </g>
            </g>
          </g>
        </g>
      </g>
    </g>
  </g>
</svg>

<svg xmlns="http://www.w3.org/2000/svg" viewBox="0 0 22 22"><defs><clipPath><path fill="#aade87" fill-opacity=".472" d="m-6 1028.36h32v32h-32z"/></clipPath><clipPath><path fill="#f2f2f2" d="m7 1023.36h1v1h-1z"/></clipPath><clipPath><path fill="#00f" fill-opacity=".514" d="m-7 1024.36h34v34h-34z"/></clipPath><clipPath><path fill="#aade87" fill-opacity=".472" d="m-6 1028.36h32v32h-32z"/></clipPath><clipPath><path fill="#f2f2f2" d="m7 1023.36h1v1h-1z"/></clipPath><clipPath><path fill="#00f" fill-opacity=".514" d="m-7 1024.36h34v34h-34z"/></clipPath><clipPath><path fill="#00f" fill-opacity=".514" d="m-7 1024.36h34v34h-34z"/></clipPath><clipPath><path fill="#aade87" fill-opacity=".472" d="m-6 1028.36h32v32h-32z"/></clipPath><clipPath><path fill="#aade87" fill-opacity=".472" d="m-6 1028.36h32v32h-32z"/></clipPath><clipPath><path fill="#00f" fill-opacity=".514" d="m-7 1024.36h34v34h-34z"/></clipPath><clipPath><path fill="#aade87" fill-opacity=".472" d="m-6 1028.36h32v32h-32z"/></clipPath><clipPath><path fill="#aade87" fill-opacity=".472" d="m-6 1028.36h32v32h-32z"/></clipPath><clipPath><path fill="#00f" fill-opacity=".514" d="m-7 1024.36h34v34h-34z"/></clipPath><clipPath><path fill="#00f" fill-opacity=".514" d="m-7 1024.36h34v34h-34z"/></clipPath><clipPath><path fill="#00f" fill-opacity=".514" d="m-7 1024.36h34v34h-34z"/></clipPath><clipPath><path fill="#aade87" fill-opacity=".472" d="m-6 1028.36h32v32h-32z"/></clipPath><clipPath><path fill="#00f" fill-opacity=".514" d="m-7 1024.36h34v34h-34z"/></clipPath><clipPath><path fill="#aade87" fill-opacity=".472" d="m-6 1028.36h32v32h-32z"/></clipPath><clipPath><path fill="#aade87" fill-opacity=".472" d="m-6 1028.36h32v32h-32z"/></clipPath><clipPath><path fill="#00f" fill-opacity=".514" d="m-7 1024.36h34v34h-34z"/></clipPath><clipPath><path fill="#f2f2f2" d="m7 1023.36h1v1h-1z"/></clipPath><clipPath><path fill="#f2f2f2" d="m7 1023.36h1v1h-1z"/></clipPath></defs><path d="m4 3c-.554 0-1 .446-1 1v14c0 .554.446 1 1 1h14c.554 0 1-.446 1-1v-14c0-.554-.446-1-1-1h-14m3.119141 3a1.269762 1.269762 0 0 1 1.269531 1.269531 1.269762 1.269762 0 0 1 -1.269531 1.271484 1.269762 1.269762 0 0 1 -1.269531 -1.271484 1.269762 1.269762 0 0 1 1.269531 -1.269531m3.873047 0a1.269762 1.269762 0 0 1 1.269531 1.269531 1.269762 1.269762 0 0 1 -1.269531 1.271484 1.269762 1.269762 0 0 1 -1.269532 -1.271484 1.269762 1.269762 0 0 1 1.269532 -1.269531m3.888671 0a1.269762 1.269762 0 0 1 1.269532 1.269531 1.269762 1.269762 0 0 1 -1.269532 1.269531 1.269762 1.269762 0 0 1 -1.269531 -1.269531 1.269762 1.269762 0 0 1 1.269531 -1.269531m0 3.697266a1.269762 1.269762 0 0 1 1.269532 1.271484 1.269762 1.269762 0 0 1 -1.269532 1.269531 1.269762 1.269762 0 0 1 -1.269531 -1.269531 1.269762 1.269762 0 0 1 1.269531 -1.271484m-7.761718.001953a1.269762 1.269762 0 0 1 1.269531 1.269531 1.269762 1.269762 0 0 1 -1.269531 1.269531 1.269762 1.269762 0 0 1 -1.269531 -1.269531 1.269762 1.269762 0 0 1 1.269531 -1.269531m3.873047 0a1.269762 1.269762 0 0 1 1.269531 1.269531 1.269762 1.269762 0 0 1 -1.269531 1.269531 1.269762 1.269762 0 0 1 -1.269532 -1.269531 1.269762 1.269762 0 0 1 1.269532 -1.269531m-3.873047 3.761719a1.269762 1.269762 0 0 1 1.269531 1.269531 1.269762 1.269762 0 0 1 -1.269531 1.269531 1.269762 1.269762 0 0 1 -1.269531 -1.269531 1.269762 1.269762 0 0 1 1.269531 -1.269531" transform="translate(0-.002)" fill="#fff" fill-rule="evenodd"/></svg>
